X:88
T:Lord Cathcart. JMT.088
M:6/8
L:1/8
Q:3/8=110
S:J.Moore,Tyneside,1841.(64a)
R:.Jig
O:England
A:Northumbria
Z:vmp.Chris Partington
K:G
D|DGB d2d|dcBA2c|BGd cAe|(G3F2)D|!
DGBd2d|dcBA2c|cBA BAF|(F3G2):|!
|:d|defg2a|gfed2d|dcB Ace|(G3F2)A|!
AB^c def|B3g3|fed ed^c|de^c de=c|!
def gdB|GBd”as written” dcBA2c|BGd cAe|(G3F2)D|!
DGBd2d|dcB”qu”A2c|cBG BAF|F3G2:|

